packages/axiom-components/src/Pictogram/svgs/annotation.svg

<svg height="16" viewBox="0 0 16 16" width="16" xmlns="http://www.w3.org/2000/svg"><path d="m6.0189166 11.3465176h-3.24677559l-.67411865 2.2949269h-2.09802236l3.37747206-10.6414445h2.05674978l3.36371453 10.6414445h-2.09802235zm-2.75150473-1.67368871h2.26311264l-1.10748066-3.74935512h-.04127257zm10.73086843 3.96861561c-.0733738-.1802817-.1364285-.3703056-.1891659-.5700773-.0527375-.1997718-.0905703-.4044129-.1134996-.6139295-.2063639.3849259-.4792187.7040686-.8185727.9574376-.3393539.253369-.7429039.3800516-1.210662.3800516-.779597 0-1.3803361-.2131678-1.80223565-.6395099-.4218995-.426342-.63284608-1.0073766-.63284608-1.7431212 0-.7747244.28087996-1.3752487.84264833-1.80159073.5617683-.42634205 1.3814793-.63950989 2.4591573-.63950989h1.128117v-.62854686c0-.38005349-.0940088-.67483415-.2820293-.88435081-.1880204-.20951667-.4677539-.31427343-.8392089-.31427343-.3255964 0-.5766686.08404903-.7532244.25214961s-.2648323.39832184-.2648323.69067068h-1.93293212l-.01375752-.04385211c-.03210105-.66752985.24190022-1.24369204.82201204-1.72850387.5801118-.48481182 1.3379145-.7272141 2.2734308-.7272141.8942435 0 1.6176527.23874797 2.1702493.71625108.5525967.4775031.8288908 1.16207636.8288908 2.05374032v3.26698191c0 .3703086.0263684.7186857.0791058 1.0451419s.1364282.6504713.2510748.972055zm-1.8366294-1.4251934c.3485257 0 .6603598-.0925758.9355116-.27773.2751519-.1851543.4631695-.3995402.5640585-.6431643v-1.1182287h-1.128117c-.4264853 0-.7486374.1120654-.966466.3361995-.2178285.2241341-.3267412.4994251-.3267412.8258813 0 .2679865.0813979.4811543.2441961.6395099.1627981.1583557.3886486.2375323.677558.2375323z" fill-rule="evenodd"/></svg>

<?xml version="1.0" encoding="UTF-8"?>
<svg width="16px" height="16px" viewBox="0 0 16 16" version="1.1" xmlns="http://www.w3.org/2000/svg" xmlns:xlink="http://www.w3.org/1999/xlink">
    <!-- Generator: Sketch 46.2 (44496) - http://www.bohemiancoding.com/sketch -->
    <title>Annotation</title>
    <desc>Created with Sketch.</desc>
    <defs></defs>
    <g id="Axiom-Icons" stroke="none" stroke-width="1" fill="none" fill-rule="evenodd">
        <g id="Annotation" fill="#000000">
            <path d="M6.0189166,11.3465176 L2.77214101,11.3465176 L2.09802236,13.6414445 L0,13.6414445 L3.37747206,3 L5.43422184,3 L8.79793637,13.6414445 L6.69991402,13.6414445 L6.0189166,11.3465176 Z M3.26741187,9.67282889 L5.53052451,9.67282889 L4.42304385,5.92347377 L4.38177128,5.92347377 L3.26741187,9.67282889 Z M13.9982803,13.6414445 C13.9249065,13.4611628 13.8618518,13.2711389 13.8091144,13.0713672 C13.7563769,12.8715954 13.7185441,12.6669543 13.6956148,12.4574377 C13.4892509,12.8423636 13.2163961,13.1615063 12.8770421,13.4148753 C12.5376882,13.6682443 12.1341382,13.7949269 11.6663801,13.7949269 C10.8867831,13.7949269 10.286044,13.5817591 9.86414445,13.155417 C9.44224495,12.729075 9.23129837,12.1480404 9.23129837,11.4122958 C9.23129837,10.6375714 9.51217833,10.0370471 10.0739467,9.61070507 C10.635715,9.18436302 11.455426,8.97119518 12.533104,8.97119518 L13.661221,8.97119518 L13.661221,8.34264832 C13.661221,7.96259483 13.5672122,7.66781417 13.3791917,7.45829751 C13.1911713,7.24878084 12.9114378,7.14402408 12.5399828,7.14402408 C12.2143864,7.14402408 11.9633142,7.22807311 11.7867584,7.39617369 C11.6102026,7.56427427 11.5219261,7.79449553 11.5219261,8.08684437 L9.58899398,8.08684437 L9.57523646,8.04299226 C9.54313541,7.37546241 9.81713668,6.79930022 10.3972485,6.31448839 C10.9773603,5.82967657 11.735163,5.58727429 12.6706793,5.58727429 C13.5649228,5.58727429 14.288332,5.82602226 14.8409286,6.30352537 C15.3935253,6.78102847 15.6698194,7.46560173 15.6698194,8.35726569 L15.6698194,11.6242476 C15.6698194,11.9945562 15.6961878,12.3429333 15.7489252,12.6693895 C15.8016626,12.9958457 15.8853534,13.3198608 16,13.6414445 L13.9982803,13.6414445 Z M12.1616509,12.2162511 C12.5101766,12.2162511 12.8220107,12.1236753 13.0971625,11.9385211 C13.3723144,11.7533668 13.560332,11.5389809 13.661221,11.2953568 L13.661221,10.1771281 L12.533104,10.1771281 C12.1066187,10.1771281 11.7844666,10.2891935 11.566638,10.5133276 C11.3488095,10.7374617 11.2398968,11.0127527 11.2398968,11.3392089 C11.2398968,11.6071954 11.3212947,11.8203632 11.4840929,11.9787188 C11.646891,12.1370745 11.8727415,12.2162511 12.1616509,12.2162511 Z" id="Aa"></path>
        </g>
    </g>
</svg>
